X:1
T:Title
%%score { ( 1 3 4 ) | ( 2 5 ) }
L:1/8
M:4/4
K:D
V:1 treble nm="Grand Piano"
V:3 treble 
V:4 treble 
V:2 bass 
V:5 bass 
V:1
 z4 z2 z z/[Q:1/4=100] F/ | B2 Bc d2 c>B | A2 A>G z2 z z/ G/ | E2 E>F D2 DE | z4 F4 | A2 z2 z4 | %6
 B2 z2 z4 | A2 z2 z4 | B2 z2 B4 | d2 c>B A2 G>F | G2 F>E z2[K:bass] z z/ E/ | G2 F>E D2 C>D | %12
 E2 F>G F3- F/G/ | E2 EF D2 DE | C2 C>D B,3- B,/F/ | B2 Bc d2 c>B | A2 A>G z2 z z/ G/ | %17
 E2 E>F D2 DE | C2 C>D B,4 |] %19
V:2
 z8 | [B,,F,]4 [F,B,F]4 | [CE]2- [C,CE]2 [D,D]4 | [E,B,]2 z2 [F,B,]4 | z4 [B,D]2 ^A,2 | %5
 z2[K:treble] A>B[K:bass] z2 E>D | F,2- [D,F,]2 [E,G,E]4 | z2[K:treble] AB[K:bass] z2 D>D | %8
 F,2- [D,F,]2 E-[F,E-] [G,E]2 | [A,,F,]4 [F,A,C]4 | [E,G,B,]2 D>C [C,^A,]4 | [B,,E,B,]4 [D,F,]4 | %12
 B,4 z4 | [E,^A,]2 z2 [F,B,]4 | F,2 z2 z4 | [B,,F,]4 [F,B,F]4 | [CE]2- [C,CE]2 [D,D]4 | %17
 [E,B,]2 z2 [F,B,]4 | F,2 z2 z4 |] %19
V:3
 x8 | D4 z4 | z4 F4 | x8 | F2 G>E z2 C2 | [A,F]4- [A,-FA]2 [A,-G]>[A,F] | D2- [D-B]>[Dc] B3- B/F/ | %7
 [A,-F]4 [A,-FA]2 [A,-G]>[A,F] | D2- [D-B]>[Dc] z A, z z/ c/ | F4 z4 | z4 C4[K:bass] | x8 | x8 | %13
 x8 | x8 | D4 z4 | z4 F4 | x8 | x8 |] %19
V:4
 x8 | x8 | z4 z2 B,2 | x8 | x8 | x8 | x8 | x8 | z4 z2 B,2 | x8 | z4 z2[K:bass] F,2 | x8 | x8 | x8 | %14
 x8 | x8 | z4 z2 B,2 | x8 | x8 |] %19
V:5
 x8 | x8 | E,2 z2 A,2 z2 | G,2- [C,G,^A,]2 D,2 B,,2 | [C,F,^A,]2 [E,G,B,]2 F,3- F,/-[F,F]/ | %5
 D,4[K:treble][K:bass] C,4 | B,,2 z2 z4 | D,4[K:treble][K:bass] C,4 | B,,2 z2 .[E,G,]2 z2 | x8 | %10
 z2 [D,B,]2 G,2 z2 | x8 | [E,G,]2 [D,F,]2 [F,^A,C]4 | G,2- [C,G,]2 D,2 B,,2 | %14
 [C,^A,]2- [C,F,A,]2 [B,,D,F,]4 | x8 | E,2 z2 A,2 z2 | G,2- [C,G,^A,]2 D,2 B,,2 | %18
 [C,^A,]2- [C,F,A,]2 [B,,D,F,]4 |] %19

